X: 462
T: Music in the glen
C:anon.
O:Ireland
B:Francis O'Neill: "The Dance Music of Ireland" (1907) no. 462
R:Reel
Z:Transcribed by Frank Nordberg - http://www.musicaviva.com
F:http://www.musicaviva.com/abc/tunes/ireland/oneill-1001/oneill-1001-046
2.abc
M:C|
L:1/8
K:A
A2(cA) FAED|CEAc BABc|d2(fd) ceAc|dBcA BAFE|A2(cA) FAED|CEAc BABc|defg ag
af|edcB A2 z2H||
||cAeA fAed|cAec dBGB|cAec dBGB|cAeA fA (3efg|aecA BAFE|cAeA fAeg|aega bg
eg|afge fdec|dBcA BAFG"_D.C."|]
W:
W:
W:  From Musica Viva - http://www.musicaviva.com
W:  the Internet center for free sheet music downloads.


